!!!!SEGMENT: pl-wnifc--13846--120_anonim--piesni-polskie-i-ruskie-ludu-galicyjskiego-120-kotyly-sia-wazy-zhory.krn
!!!kernsource:
!!!cenid: 18xx:3342
!!!COM: Anonim
!!!COM-rismID:
!!!CDT:
!!!CNT:
!!!GTL: Pieśni polskie i ruskie ludu galicyjskiego
!!!OTL: 120. Kotyły sia wazy zhory
!!!PDT: 1833
!!!AGN:
!!!SMS-siglum: PL-Wnifc
!!!SMS-shelfmark: 13846
!!!SMS-shelfwork: 120 G
!!!NIFC-rismSourceID: 1001039621
!!!NIFC-islandoraID:
!!!URL-pdf-islandora:
!!!URL-scan:
!!!ONB-nifc:
!!!AIN: 1 piano 1 vox
!!!key: g
!!!OMD: Allegro moderato.
**kern	**kern	**kern	**text
*part2	*part2	*part1	*part1
*staff3	*staff2	*staff1	*staff1
*I"FORTEPIAN.	*I"FORTEPIAN.	*I"GŁOS.	*
*Ipiano	*Ipiano	*Ivox	*
*ICklav	*ICklav	*ICvox	*
*IGacmp	*IGacmp	*IGsolo	*
*clefF4	*clefG2	*clefG2	*
*k[e-b-]	*k[e-b-]	*k[e-b-]	*
*g:	*g:	*g:	*
*M2/4	*M2/4	*M2/4	*
=1-	=1-	=1-	=1-
!	!	!LO:TX:a:t=E.191.	!
8G/ 8GG/	8.gg\L 8.b-\	8.gg\	Ko-
8d\L 8G\	.	.	.
.	16dd\K 16b-\	16dd\	-ty-
8d\ 8G\	8dd\ 8b-\	8dd\	-ły
8d\J 8G\	8dd\J 8b-\	8dd\	sia
=2	=2	=2	=2
8e-\L 8G\	8cc#X\L 8a\	8cc#X\	wa-
8e-\J 8G\	8cc#\J 8a\	8cc#\	-zy
8d\L 8F#X\	8.dd\L 8.a\	8.dd\	zho-
8d\J 8D\	.	.	.
.	16ccn\Jk 16a\	16ccn\	-ry,
!!LO:LB:g=original
=3	=3	=3	=3
8d\L 8G\	8b-/L 8g/	8b-/	po-
8d\ 8D\	8a/ 8f#X/	8a/	-ła-
8d\ 8G\	8b-/ 8g/	8b-/	-ma-
8e-\J 8E-\	8cc#X/J 8g/	8cc#X\	-ły
=4	=4	=4	=4
*^	*^	*	*
4d/ 4D/	4D\	8.dd/L	4f#X\	(8.dd\L	szpij-
.	.	16cc#X/Jk	.	16cc#X\Jk)	.
8A/L	4D\	4dd/	4f#\	4dd\	-ci
8d/J	.	.	.	.	.
*v	*v	*	*	*	*
*	*v	*v	*	*
!!LO:LB:g=original
=5	=5	=5	=5
!LO:TX:t=P:problem=mixed beam	!	!	!
8GG/L	8.gg\L 8.b-\ 8.g\	8.gg\	u
8B-\ 8G\	.	.	.
.	16dd\Jk 16b-\	16dd\	wżeż
8d\ 8G\	8dd\L 8b-\	8dd\	me-
8d\J 8G\	8dd\J 8b-\	8dd\	-ni
=6	=6	=6	=6
8e-\L 8G\	8cc#X\L 8a\	8cc#X\	ne
8e-\J 8G\	8cc#\J 8a\	8cc#\	cho-
8d\L 8G\	8.dd\L 8.b-\	8.dd\	-dy-
8d\J 8F#X\	.	.	.
.	16ccn\Jk 16a\	16ccn\	-ty
!!LO:LB:g=original
=7	=7	=7	=7
!LO:TX:t=P:problem=mixed beam	!	!	!
8G\L	8b-/L 8d/	8b-/	na
8GG/J	8b-/J 8d/	8b-/	ti
8D/L	8.a/L 8.c/	8.a/	we-
8DD/J	.	.	.
.	16f#X/Jk 16A/	16f#X/	-czer-
=8	=8	=8	=8
8GG/L	[4g/ [4B-/	4g/	-ny-
8D/J	.	.	.
4G\	8g/] 8B-/]	8g/	-ci
.	8r	8r	.
!!LO:PB:g=original
=9||	=9||	=9||	=9||
*^	*	*	*
8r	2DD\	8f#X/	8f#X/	a
8d\L 8c\ 8A\ 8D\	.	8a/	8a/	wżeż
8d\ 8c\ 8A\ 8D\	.	8.dd\	8.dd\	me-
8d\J 8c\ 8A\ 8D\	.	.	.	.
.	.	16f#/	16f#/	-ni
=10	=10	=10	=10	=10
8r	2GG\	8g/L|	8g/	ne
8d\L 8B-\ 8G\ 8D\	.	8b-/J|	8b-/	cho-
.	.	8qcc/	8qcc/	.
8d\ 8B-\ 8G\ 8D\	.	8b-\L	8b-/	-dy-
8d\J 8B-\ 8G\ 8D\	.	(16a/L	(16a/LL	-ty,
.	.	16g/JJ)	16g/JJ)	.
!!LO:LB:g=original
=11	=11	=11	=11	=11
8r	4DD\	8f#X/L	8f#X/	ku-
8d\L 8c\ 8A\ 8D\	.	8a/J	8a/	-da
!	!	!LO:TX:t=P:problem=mixed beam	!	!
8d\ 8c\ 8A\ 8D\	4ryy	8.dd\L	8.dd\	ja
8d\J 8c\ 8A\ 8D\	.	.	.	.
.	.	16f#/Jk	16f#/	cho-
=12	=12	=12	=12	=12
8r	4GG\	4g/	4g/	-dy-
8d\L 8B-\	.	.	.	.
8B-\ 8G\	4ryy	8g/	8g/	-ta;
8d\J 8B-\	.	8r	8r	.
*v	*v	*	*	*
!!LO:LB:g=original
=13	=13	=13	=13
*tremolo	*	*	*
8c\ 8A\L	8dd\L	8d/	a
8D\	16ff#X\L	16f#X/LL	wżeż
.	16aa\JJ	16a/JJ	.
8c\ 8A\	8.ddd\L	8.dd\	me-
8D\J	.	.	.
.	16ff#\Jk	16f#/	-ni
=14	=14	=14	=14
8D\	8gg\L	8g/	ne
8B-\ 8G\J	8bb-\J	8b-/	lu-
.	(8qccc/	8qcc/	.
8d\ 8G\	8bb-\L)	8b-/	-by-
8D\J	16aa\L	(16a/LL	-ty,
.	16gg\JJ	16g/JJ)	.
!!LO:LB:g=original
=15	=15	=15	=15
8c\ 8A\L	8dd\L	8d/	ko-
8D\	16ff#X\L	(16f#X/LL	-ho
.	16aa\JJ	16a/JJ)	.
8c\ 8A\	8.ddd\L	8.dd\	ja
8D\J	.	.	.
.	16ff#\Jk	16f#/	lu-
=16	=16	=16	=16
8D\	4gg\	4g/	-by-
8B-\ 8G\J	.	.	.
*Xtremolo	*	*	*
8B-J\ 8G\	8gg\	8g/	-ła.
8r	8r	8r	.
==	==	==	==
*-	*-	*-	*-
!!!system-decoration: s1{(s2,s3)}
!!!RDF**kern: | = vertical stroke
!!!ENC: Marta Lawrence
!!!END: 2021-11-11
